!!!!SEGMENT: pl-wnifc--6439-n--009_anonim--mazur-no-9.krn
!!!cenid: 18xx:3952
!!!COM: Anonim
!!!COM-rismID: pe30004985
!!!CDT:
!!!CNT:
!!!OTL: Mazur No. 9
!!!PDT: 1827
!!!AGN:
!!!YEC: Copyright 2022 Narodowy Instytut Fryderyka Chopina (https://polishscores.org)
!!!YEM: License CC-BY-4.0 (https://creativecommons.org/licenses/by/4.0)
!!!SMS-siglum: PL-Wnifc
!!!SMS-shelfmark: 6439/n
!!!SMS-shelfwork: 009 W
!!!SMS-variant:
!!!SMS-altvar:
!!!NIFC-rismSourceID: 1001011210
!!!NIFC-rismChildID: 1001011239
!!!NIFC-islandoraID: nifc:212734
!!!URL-pdf-islandora: https://repozytorium.nifc.pl/islandora/object/nifc:212734/datastream/PDF/view
!!!URL-scan: https://polish.musicsources.pl/pl/lokalizacje/galeria/druki-muzyczne/16857 @EN{Scan on Polish Music Sources Website} @PL{Skany w portalu Dziedzictwo Muzyki Polskiej w otwartym dostępie}
!!!IIIF:
!!!ONB-nifc: str. 7 (skan 0004)
!!!AIN: 2 piano
!!!key: B-
**kern	**kern
*part2	*part1
*staff2	*staff1
*I"Pianoforte	*I"Pianoforte
*I'Pf	*I'Pf
*Ipiano	*Ipiano
*ICklav	*ICklav
*clefF4	*clefG2
*k[b-e-]	*k[b-e-]
*B-:	*B-:
*M3/8	*M3/8
=1	=1
!	!LO:TX:a:Bi:t=Mazur\nNo 9.
.	8qg/
*^	*
!	!	!LO:TUP:b
8rc	4BB-\	(24f/LL
.	.	24en/
.	.	24f/JJ)
8D/L 8F	.	8b-/L
8D/J 8F	8rEE	8dd/J
=2	=2	=2
.	.	8qgg/
!	!	!LO:TUP:a
8rc	4BB-\	(24ff\LL
.	.	24een\
.	.	24ff\JJ)
8D/L 8F	.	8dd\L
8D/J 8F	8rEE	8bb-\J
=3	=3	=3
*	*^	*
8rc	4FF\	4FF/	(16aa\LL
.	.	.	16gg\)
8AA/L 8C 8E-	.	.	16ff#X\
.	.	.	16gg\
8AA/J 8C 8E-	8rEE	8ryy	16ee-X\
.	.	.	16cc\JJ
*v	*v	*v	*
=4	=4
.	8qa/
*^	*
*	*	*Xtuplet
8rc	4BB-\	24b-\LL
.	.	24dd\
.	.	24b-\JJ
8D/L 8F	.	8f/L
8D/J 8F	8rEE	8f/J
=5	=5	=5
8rc	4E-\	8e-/
8G/L 8B-	.	8.g\L 8.b- 8.ee- 8.gg
8G/J 8B-	8rEE	.
.	.	16ff\Jk
=6	=6	=6
8rc	4F\	16ff\LL
.	.	16ddd\
8B-/L 8d	.	16ccc\
.	.	16bb-\
8B-/J 8d	8rEE	16aa\
.	.	16gg\JJ
=7	=7	=7
8rc	4F\	8ff\L
.	.	32qqgg/LLL
.	.	32qqff/
.	.	32qqeen/JJJ
8c/L 8e-	.	16gg\L
.	.	16ff\
8c/J 8e-	8rEE	16ee-X\
.	.	16a\JJ
*v	*v	*
=8	=8
8B-\ 8d	16cc/LL
.	16b-/JJ
4BB-\ 4B-	4b-/
=9:|!|:	=9:|!|:
.	8qdd/
*^	*
*	*	*tuplet
!	!	!LO:TUP:a
8rc	4F\	(24cc\LL
.	.	24bn\
.	.	24cc\JJ)
8A/L 8c	.	8ff\L
8A/J 8c	8rEE	8aa\J
!LO:LB:g=original	!LO:LB:g=original	!LO:LB:g=original
=10	=10	=10
.	.	8qaa/
!	!	!LO:TUP:a
8rc	4C\	(24gg\LL
.	.	24ff#X\
.	.	24gg\JJ)
8G/L 8B-	.	16bb-\LL
.	.	16een\
8G/J 8B-	8rEE	16ff#\
.	.	16gg\JJ
=11	=11	=11
8rc	4C\	16ff#X\LL
.	.	16gg\
8G/L 8B-	.	16aa\
.	.	16bb-\
8G/J 8B-	8rEE	16ddd\
.	.	16ccc\JJ
=12	=12	=12
8rc	4F\	32bbn\LLL
.	.	32ccc\
.	.	32ddd\
.	.	32ccc\JJJ
8A/L 8c	.	8aa\L
8A/J 8c	8rEE	8ff\J
*clefG2	*	*
=13	=13	=13
8raa	4B-\	16dd\LL
.	.	16gg\
8d/L 8g	.	16bb-\
.	.	16ddd\
8d/J 8g	8rc	16ccc\
.	.	16bb-\JJ
=14	=14	=14
8raa	4c\	16aa\LL
.	.	16ccc\
8f/L 8a	.	16fff\
.	.	16aa\
8f/J 8a	8rc	16ddd\
.	.	16ccc\JJ
=15	=15	=15
8raa	4c\	16bb-\LL
.	.	16aa\
8g/L 8b-	.	16ccc\
.	.	16bb-\
8g/J 8b-	8rc	16gg\
.	.	16een\JJ
*v	*v	*
=16	=16
8f/ 8a	16gg\LL
.	16ff\JJ
4f/ 4a	4ff\
=17:|!|:	=17:|!|:
*^	*
8raa	4g\	8f/
8b-/L 8dd	.	8.dd\L
8b-/J 8dd	8rc	.
*	*	*Xtuplet
.	.	(48cc\LL
.	.	48b-\
.	.	48a\JJJ)
*clefF4	*	*
=18	=18	=18
8rc	4E-\	8gM/
8G/L 8c	.	8ee-\L
8G/J 8c	8rEE	(32ee-\LL
!LO:LB:g=original	!LO:LB:g=original	!
.	.	32dd\
.	.	32cc\
.	.	32b-\JJJ)
!	!	!LO:LB:g=original
=19	=19	=19
8rc	4F\	16a\LL
.	.	16cc\JJ
8A/L 8c 8e-	.	8ff\L
.	.	32qqgg/LLL
.	.	32qqff/
.	.	32qqeen/JJJ
8A/J 8c 8e-	8rEE	16ff\L
.	.	16gg\JJ
=20	=20	=20
8rc	4F\	16ff\LL
.	.	16ee-\
8A/L 8c 8e-	.	16cc\
.	.	16a\
8A/J 8c 8e-	8rEE	16dd\
.	.	16cc\JJ
=21	=21	=21
8rc	4B-\	16b-\LL
.	.	16ff\
8d/L 8f	.	16bb-\
.	.	16dd\
8d/J 8f	8rEE	16gg\
.	.	16ff\JJ
=22	=22	=22
8rc	4F\	16een\LL
.	.	16ff\
8A/L 8c 8f	.	16gg\
.	.	16cc\
8A/J 8c 8f	8rEE	16ff\
.	.	16ee\JJ
*v	*v	*
=23	=23
8B-\L 8d	16dd\LL
.	16b-\
8E-\ 8G 8c	16g\
.	16cc\
8F\J 8c 8e-	16b-\
.	16a\JJ
=24	=24
8B-\ 8d	16cc\LL
.	16b-\JJ
4BB-\ 4B-	4b-\
=25:|!|:	=25:|!|:
*k[b-e-a-]	*k[b-e-a-]
*E-:	*E-:
8EE-/ 8E-	8G/ 8B- 8e-
8E-\L 8G 8B-	8.g:\L 8.b-: 8.ee-: 8.gg:
8E-\J 8G 8B-	.
.	16bb-\Jk
=26	=26
8BBB-/ 8BB-	16aa-\LL
.	16gg\
8BB-\L 8D 8F 8A-	16ff\
.	16ee-\
8BB-\J 8D 8F 8A-	16dd\
.	16cc\JJ
!LO:LB:g=original	!LO:LB:g=original
=27	=27
8BB-\L 8B-	16b-\LL
.	16bb-\
8AAn\ 8An	16cc\
.	16bb-\
8AA-X\J 8A-X	16dd\
.	16bb-\JJ
=28	=28
8GG\L 8G	16ee-\LL
.	16bb-\
8FF\ 8F	16ff\
.	16bb-\
8EE-\J 8E-	16gg\
.	16bb-\JJ
=29	=29
8EE-\ 8E-	8g\L 8b- 8ee-
8E-\L 8G 8B-	16gg\L
.	16ff\
8E-\J 8G 8B-	16aa-\
.	16gg\JJ
=30	=30
.	8qccc/
*	*tuplet
!	!LO:TUP:a
8AA-\ 8A-	(24bb-\LL
.	24aan\
.	24bb-\JJ)
8A-\L 8d	16ddd\LL
.	16ccc\
8A-\J 8d	16aa-X\
.	16ff\JJ
=31	=31
8BB-\ 8B-	16ee-\LL
.	16dd\
8B-\L 8d 8f 8a-	16bb-\
.	16b-\JJ
8B-\J 8d 8f 8a-	16cc/LL
.	16dd/JJ
=32	=32
8e-\ 8g	16ff\LL
.	16ee-\JJ
4E-\	4ee-\
=:|!	=:|!
*-	*-
!!!system-decoration: [(s1,s2)]
!!!ENC: Solarz Mateusz
!!!END: 2022-07-28
!!!ENC: Julita Ruszuk
!!!END: 2022-08-25
